img/inst.svg

<svg width="50" height="51" viewBox="0 0 50 51" fill="none" xmlns="http://www.w3.org/2000/svg">
<path fill-rule="evenodd" clip-rule="evenodd" d="M25 15.1393C22.2373 15.1393 19.5878 16.228 17.6343 18.1659C15.6808 20.1038 14.5833 22.7322 14.5833 25.4728C14.5833 28.2134 15.6808 30.8417 17.6343 32.7796C19.5878 34.7175 22.2373 35.8062 25 35.8062C27.7627 35.8062 30.4122 34.7175 32.3657 32.7796C34.3192 30.8417 35.4167 28.2134 35.4167 25.4728C35.4167 22.7322 34.3192 20.1038 32.3657 18.1659C30.4122 16.228 27.7627 15.1393 25 15.1393ZM18.75 25.4728C18.75 27.1171 19.4085 28.6941 20.5806 29.8569C21.7527 31.0196 23.3424 31.6728 25 31.6728C26.6576 31.6728 28.2473 31.0196 29.4194 29.8569C30.5915 28.6941 31.25 27.1171 31.25 25.4728C31.25 23.8284 30.5915 22.2514 29.4194 21.0887C28.2473 19.9259 26.6576 19.2727 25 19.2727C23.3424 19.2727 21.7527 19.9259 20.5806 21.0887C19.4085 22.2514 18.75 23.8284 18.75 25.4728Z" fill="#4694DC"/>
<path d="M37.5 11.0059C36.9475 11.0059 36.4176 11.2237 36.0269 11.6112C35.6362 11.9988 35.4167 12.5245 35.4167 13.0726C35.4167 13.6207 35.6362 14.1464 36.0269 14.534C36.4176 14.9216 36.9475 15.1393 37.5 15.1393C38.0526 15.1393 38.5825 14.9216 38.9732 14.534C39.3639 14.1464 39.5834 13.6207 39.5834 13.0726C39.5834 12.5245 39.3639 11.9988 38.9732 11.6112C38.5825 11.2237 38.0526 11.0059 37.5 11.0059Z" fill="#4694DC"/>
<path fill-rule="evenodd" clip-rule="evenodd" d="M10.4167 2.73917C8.20654 2.73917 6.08692 3.61013 4.52412 5.16045C2.96132 6.71077 2.08334 8.81345 2.08334 11.0059V39.9396C2.08334 42.1321 2.96132 44.2348 4.52412 45.7851C6.08692 47.3354 8.20654 48.2064 10.4167 48.2064H39.5833C41.7935 48.2064 43.9131 47.3354 45.4759 45.7851C47.0387 44.2348 47.9167 42.1321 47.9167 39.9396V11.0059C47.9167 8.81345 47.0387 6.71077 45.4759 5.16045C43.9131 3.61013 41.7935 2.73917 39.5833 2.73917H10.4167ZM39.5833 6.87255H10.4167C9.31161 6.87255 8.2518 7.30803 7.4704 8.08319C6.689 8.85835 6.25001 9.90969 6.25001 11.0059V39.9396C6.25001 41.0359 6.689 42.0872 7.4704 42.8624C8.2518 43.6375 9.31161 44.073 10.4167 44.073H39.5833C40.6884 44.073 41.7482 43.6375 42.5296 42.8624C43.311 42.0872 43.75 41.0359 43.75 39.9396V11.0059C43.75 9.90969 43.311 8.85835 42.5296 8.08319C41.7482 7.30803 40.6884 6.87255 39.5833 6.87255Z" fill="#4694DC"/>
</svg>

<svg xmlns="http://www.w3.org/2000/svg" width="50" height="51" fill="none"><path fill="#4694DC" fill-rule="evenodd" d="M25 15.14a10.46 10.46 0 0 0-7.366 3.026 10.292 10.292 0 0 0-3.05 7.307c0 2.74 1.097 5.369 3.05 7.307A10.46 10.46 0 0 0 25 35.806a10.46 10.46 0 0 0 7.366-3.026 10.292 10.292 0 0 0 3.05-7.307c0-2.74-1.097-5.37-3.05-7.307A10.46 10.46 0 0 0 25 15.139Zm-6.25 10.333c0 1.644.659 3.221 1.83 4.384A6.276 6.276 0 0 0 25 31.673a6.276 6.276 0 0 0 4.42-1.816 6.175 6.175 0 0 0 1.83-4.384 6.175 6.175 0 0 0-1.83-4.384A6.275 6.275 0 0 0 25 19.273a6.275 6.275 0 0 0-4.42 1.816 6.175 6.175 0 0 0-1.83 4.384Z" clip-rule="evenodd"/><path fill="#4694DC" d="M37.5 11.006c-.553 0-1.082.218-1.473.605a2.059 2.059 0 0 0 0 2.923 2.092 2.092 0 0 0 2.946 0 2.059 2.059 0 0 0 0-2.923 2.092 2.092 0 0 0-1.473-.605Z"/><path fill="#4694DC" fill-rule="evenodd" d="M10.417 2.74c-2.21 0-4.33.87-5.893 2.42a8.233 8.233 0 0 0-2.44 5.846V39.94c0 2.192.877 4.295 2.44 5.845a8.368 8.368 0 0 0 5.893 2.421h29.166c2.21 0 4.33-.87 5.893-2.42a8.233 8.233 0 0 0 2.44-5.846V11.006a8.233 8.233 0 0 0-2.44-5.846 8.367 8.367 0 0 0-5.893-2.42H10.417Zm29.166 4.133H10.417a4.184 4.184 0 0 0-2.947 1.21 4.117 4.117 0 0 0-1.22 2.923V39.94c0 1.096.439 2.147 1.22 2.922a4.184 4.184 0 0 0 2.947 1.211h29.166a4.184 4.184 0 0 0 2.947-1.21 4.117 4.117 0 0 0 1.22-2.923V11.006a4.117 4.117 0 0 0-1.22-2.923 4.184 4.184 0 0 0-2.947-1.21Z" clip-rule="evenodd"/></svg>
